docs/img/svg/sort.svg

<svg xmlns="http://www.w3.org/2000/svg" preserveAspectRatio="xMidYMid" width="23" height="23" viewBox="0 0 23 23"><defs><style>.cls-1{fill:#818181;fill-rule:evenodd}</style></defs><path d="M20.289 12.221v10.133a.653.653 0 0 1-.666.646.653.653 0 0 1-.665-.646V12.225c-1.543-.301-2.711-1.628-2.711-3.218 0-1.589 1.168-2.916 2.711-3.218V.646c0-.359.296-.646.665-.646.37 0 .666.287.666.646v5.143C21.837 6.091 23 7.413 23 9.003c0 1.589-1.168 2.916-2.711 3.218zm-.666-5.201c-1.128 0-2.045.891-2.045 1.987 0 1.097.917 1.988 2.045 1.988 1.129 0 2.046-.891 2.046-1.988 0-1.096-.917-1.987-2.046-1.987zM12.19 17.646v4.703a.653.653 0 0 1-.665.646.653.653 0 0 1-.666-.646v-4.703c-1.543-.302-2.711-1.628-2.711-3.218s1.168-2.916 2.711-3.218V.646c0-.359.296-.646.666-.646.369 0 .665.287.665.646V11.21c1.548.302 2.711 1.633 2.711 3.218 0 1.59-1.168 2.916-2.711 3.218zm-.665-5.205c-1.129 0-2.046.891-2.046 1.987 0 1.097.917 1.988 2.046 1.988 1.128 0 2.045-.891 2.045-1.988 0-1.096-.917-1.987-2.045-1.987zm-7.483-.22v10.128a.653.653 0 0 1-.665.646.653.653 0 0 1-.666-.646V12.225C1.168 11.924 0 10.597 0 9.007c0-1.589 1.168-2.916 2.711-3.218V.646c0-.359.296-.646.666-.646.369 0 .665.287.665.646v5.143c1.543.302 2.711 1.624 2.711 3.214 0 1.589-1.168 2.916-2.711 3.218zM3.377 7.02c-1.129 0-2.046.891-2.046 1.987 0 1.097.917 1.988 2.046 1.988 1.123 0 2.045-.891 2.045-1.988 0-1.096-.917-1.987-2.045-1.987z" class="cls-1"/></svg>

<svg xmlns="http://www.w3.org/2000/svg" xmlns:xlink="http://www.w3.org/1999/xlink" preserveAspectRatio="xMidYMid" width="23" height="23" viewBox="0 0 23 23">
  <defs>
    <style>
      .cls-1 {
        fill: #818181;
        fill-rule: evenodd;
      }
    </style>
  </defs>
  <path d="M20.289,12.221 L20.289,22.354 C20.289,22.713 19.993,23.000 19.623,23.000 C19.254,23.000 18.958,22.713 18.958,22.354 L18.958,12.225 C17.415,11.924 16.247,10.597 16.247,9.007 C16.247,7.418 17.415,6.091 18.958,5.789 L18.958,0.646 C18.958,0.287 19.254,-0.000 19.623,-0.000 C19.993,-0.000 20.289,0.287 20.289,0.646 L20.289,5.789 C21.837,6.091 23.000,7.413 23.000,9.003 C23.000,10.592 21.832,11.919 20.289,12.221 ZM19.623,7.020 C18.495,7.020 17.578,7.911 17.578,9.007 C17.578,10.104 18.495,10.995 19.623,10.995 C20.752,10.995 21.669,10.104 21.669,9.007 C21.669,7.911 20.752,7.020 19.623,7.020 ZM12.190,17.646 L12.190,22.349 C12.190,22.708 11.894,22.995 11.525,22.995 C11.155,22.995 10.859,22.708 10.859,22.349 L10.859,17.646 C9.316,17.344 8.148,16.018 8.148,14.428 C8.148,12.838 9.316,11.512 10.859,11.210 L10.859,0.646 C10.859,0.287 11.155,-0.000 11.525,-0.000 C11.894,-0.000 12.190,0.287 12.190,0.646 L12.190,11.210 C13.738,11.512 14.901,12.843 14.901,14.428 C14.901,16.018 13.733,17.344 12.190,17.646 ZM11.525,12.441 C10.396,12.441 9.479,13.332 9.479,14.428 C9.479,15.525 10.396,16.416 11.525,16.416 C12.653,16.416 13.570,15.525 13.570,14.428 C13.570,13.332 12.653,12.441 11.525,12.441 ZM4.042,12.221 L4.042,22.349 C4.042,22.708 3.746,22.995 3.377,22.995 C3.007,22.995 2.711,22.708 2.711,22.349 L2.711,12.225 C1.168,11.924 -0.000,10.597 -0.000,9.007 C-0.000,7.418 1.168,6.091 2.711,5.789 L2.711,0.646 C2.711,0.287 3.007,-0.000 3.377,-0.000 C3.746,-0.000 4.042,0.287 4.042,0.646 L4.042,5.789 C5.585,6.091 6.753,7.413 6.753,9.003 C6.753,10.592 5.585,11.919 4.042,12.221 ZM3.377,7.020 C2.248,7.020 1.331,7.911 1.331,9.007 C1.331,10.104 2.248,10.995 3.377,10.995 C4.500,10.995 5.422,10.104 5.422,9.007 C5.422,7.911 4.505,7.020 3.377,7.020 Z" class="cls-1"/>
</svg>
